X:1
T:I, nykterhetens sanna vänner
T:I, nykterhetens sanna vänner
T:Fra "Vita bandets sångbok" (1915)
T:Arr. av G. B-t.
C:Arr. av G. B-t.
%%score [ 1 2 3 ]
L:1/8
Q:1/4=80
M:4/4
K:Bb
V:1 treble nm="Sopran"
V:2 treble nm="Mezzosopran"
V:3 treble nm="Alt"
V:1
!mf! B2 | B3 F G3/2 A/ B c | d2 B2 z2!f! !^!B2 | A3 B c B e3/2 d/ | c4 z2!p! B2 | %5
w: 1.I,|nyk- ter- he- tens san- na|vän- ner, Stån|upp, nu gäl- ler det fram-|åt! Kring|
w: 2.Ej|mod och kraft oss sko- la|svi- ka, Vårt|bröst är varmt av kär- leks-|glöd; För|
 B3 F G3/2 A/ B c | d2 B2 z2 d2 | c3 A c3/2 B/ A G |!mf! F2!<(! A2 B2 =B2!<)! | %9
w: e- der mör- das barn och|män- ner: Hör|de- ras rop och bitt- ra|gråt, Hör de- ras|
w: lju- sets makt skall mörk- ret|vi- ka, Som|fyllt vårt land med brott och|nöd, Som fyllt vårt|
 c3 A (cB)!>(! (AG)!>)! | F4 z2!p! F2 | c3 c e3/2 c/ A F | B2 F2 z2 F2 | c3 c e3/2 c/ A F | %14
w: rop och bitt- * ra _|gråt! Skall|dryc- ken- ska- pen få för-|ö- da Med|fräck och blod- be- sud- lad|
w: land med brott _ och _|nöd. Vårt|land har län- ge nog fått|li- da Av|dryc- ken- ska- pens syn- da-|
 B4 z2 z!mf! F |"^cresc." !>!B3 A !>!G3!f! G | c3 G e2!mf! c2 | B3 B c c d3/2 c/ | %18
w: hand Vårt|värn, vårt folk, vårt|fos- ter- land? Skall|frid och säll- het här för-|
w: flod, Som|har bort- ta- git|dygd och mod Med|vå- gor, grum- li- ga och|
 B2 A2 z2 z!f! F | !>!B2 z F !>!G2 z G | c3 G e2 c2 | B3 B d2 c2 | B4 z2 z F | B2 z F G2 z G | %24
w: blö- da? Fram-|åt, fram- åt! Med|san- ning- en om-|gjor- da- de vi|gå. Fram-|åt, fram- åt! Med|
w: stri- da. *||||||
 c3 G e2 c2 | B3 B d2 c2 | B4 z2 |] %27
w: tro och bön till|sist vi se- ger|få.|
w: |||
V:2
 D2 | D3 D E3/2 C/ D E | F2 D2 z2 !^!F2 | F3 F F F A3/2 B/ | A4 z2 F2 | F3 D E3/2 E/ F F | %6
w: 1.I,|nyk- ter- he- tens san- na|vän- ner, Stån|upp, nu gäl- ler det fram-|åt! Kring|e- der mör- das barn och|
w: 2.Ej|mod och kraft oss sko- la|svi- ka, Vårt|bröst är varmt av kär- leks-|glöd; För|lju- sets makt skall mörk- ret|
 F2 D2 z2 F2 | A3 F A3/2 G/ F =E | F2 F2 F2 (FG) | A3 F (AG) (F=E) | F4 z2 F2 | A3 A A3/2 A/ F F | %12
w: män- ner: Hör|de- ras rop och bitt- ra|gråt, Hör de- ras *|rop och bitt- * ra _|gråt! Skall|dryc- ken- ska- pen få för-|
w: vi- ka, Som|fyllt vårt land med brott och|nöd, Som fyllt vårt *|land med brott _ och _|nöd. Vårt|land har län- ge nog fått|
 F2 D2 z2 D2 | F3 F F3/2 F/ F E | D4 z2 z D | !>!D3 F !>!E3 D | E3 E G2 G2 | G3 G G G G3/2 G/ | %18
w: ö- da Med|fräck och blod- be- sud- lad|hand Vårt|värn, vårt folk, vårt|fos- ter- land? Skall|frid och säll- het här för-|
w: li- da Av|dryc- ken- ska- pens syn- da-|flod, Som|har bort- ta- git|dygd och mod Med|vå- gor, grum- li- ga och|
 =E2 F2 z2 z F | !>!D2 z D !>!E2 z D | E3 E G2 G2 | F3 F F2 (FE) | D4 z2 z F | D2 z D E2 z D | %24
w: blö- da? Fram-|åt, fram- åt! Med|san- ning- en om-|gjor- da- de vi *|gå. Fram-|åt, fram- åt! Med|
w: stri- da. *||||||
 E3 E G2 G2 | F3 F F2 (FE) | D4 z2 |] %27
w: tro och bön till|sist vi se- ger *|få.|
w: |||
V:3
 B,2 | B,3 B, B,3/2 B,/ B, B, | B,2 B,2 z2 !^!D2 | C3 D E D C3/2 B,/ | F4 z2 D2 | %5
w: 1.I,|nyk- ter- he- tens san- na|vän- ner, Stån|upp, nu gäl- ler det fram-|åt! Kring|
w: 2.Ej|mod och kraft oss sko- la|svi- ka, Vårt|bröst är varmt av kär- leks-|glöd; För|
 D3 B, E3/2 C/ D A, | B,2 B,2 z2 B,2 | C3 D B,3/2 B,/ C C | F2 E2 D2 _D2 | C3 C C2 C2 | F4 z2 F2 | %11
w: e- der mör- das barn och|män- ner: Hör|de- ras rop och bitt- ra|gråt, Hör de- ras|rop och bitt- ra|gråt! Skall|
w: lju- sets makt skall mörk- ret|vi- ka, Som|fyllt vårt land med brott och|nöd, Som fyllt vårt|land med brott och|nöd. Vårt|
 F3 F F3/2 F/ F E | D2 B,2 z2 B,2 | A,3 A, C3/2 E/ C A, | B,4 z2 z B, | !>!B,3 D !>!E3 =B, | %16
w: dryc- ken- ska- pen få för-|ö- da Med|fräck och blod- be- sud- lad|hand Vårt|värn, vårt folk, vårt|
w: land har län- ge nog fått|li- da Av|dryc- ken- ska- pens syn- da-|flod, Som|har bort- ta- git|
 C3 C C2 E2 | G3 F E E =E3/2 E/ | C2 F2 z2 z F | !>!B,2 z B, !>!E2 z =B, | C3 C C2 E2 | %21
w: fos- ter- land? Skall|frid och säll- het här för-|blö- da? Fram-|åt, fram- åt! Med|san- ning- en om-|
w: dygd och mod Med|vå- gor, grum- li- ga och|stri- da. *|||
 D3 D B,2 A,2 | B,4 z2 z F | B,2 z B, E2 z =B, | C3 C C2 E2 | D3 D B,2 A,2 | B,4 z2 |] %27
w: gjor- da- de vi|gå. Fram-|åt, fram- åt! Med|tro och bön till|sist vi se- ger|få.|
w: ||||||

